client/public/assets/curriculum/cur-topic-scripting.svg

<svg viewBox="0 0 60 60" fill="none" xmlns="http://www.w3.org/2000/svg">
  <circle cx="30" cy="30" r="30" fill="white" />
  <path
    d="M22.4805 38.127C21.888 38.127 21.3548 38.0762 20.8809 37.9746C20.4154 37.873 20.1826 37.6868 20.1826 37.416C20.1826 37.3568 20.2038 37.2214 20.2461 37.0098C20.2884 36.7982 20.3434 36.6035 20.4111 36.4258C20.4873 36.248 20.5804 36.1592 20.6904 36.1592C20.7074 36.1592 20.8005 36.1761 20.9697 36.21C21.1898 36.2607 21.3802 36.3031 21.541 36.3369C21.7103 36.3623 21.9007 36.375 22.1123 36.375C23.2295 36.375 24.0335 36.1549 24.5244 35.7148C25.0238 35.2747 25.2734 34.568 25.2734 33.5947V22.6514C25.2734 22.3128 25.5739 22.1436 26.1748 22.1436H26.3525C26.9619 22.1436 27.2666 22.3128 27.2666 22.6514V33.3662C27.2666 34.8643 26.8815 36.0322 26.1113 36.8701C25.3496 37.708 24.1393 38.127 22.4805 38.127ZM34.1553 38.127C33.3258 38.127 32.5514 38.0381 31.832 37.8604C31.1211 37.6742 30.5498 37.4541 30.1182 37.2002C29.695 36.9378 29.4834 36.7008 29.4834 36.4893C29.4834 36.3708 29.5299 36.2142 29.623 36.0195C29.7246 35.8249 29.8389 35.6514 29.9658 35.499C30.0928 35.3467 30.1943 35.2705 30.2705 35.2705C30.3382 35.2705 30.4863 35.3382 30.7148 35.4736C31.2396 35.7445 31.7601 35.9688 32.2764 36.1465C32.7926 36.3242 33.4189 36.4131 34.1553 36.4131C34.7308 36.4131 35.2428 36.3031 35.6914 36.083C36.14 35.863 36.487 35.554 36.7324 35.1562C36.9863 34.75 37.1133 34.2845 37.1133 33.7598C37.1133 33.2012 36.9609 32.7399 36.6562 32.376C36.36 32.0036 35.9961 31.7116 35.5645 31.5C35.1413 31.2799 34.5234 31.0091 33.7109 30.6875C32.8307 30.349 32.1325 30.0358 31.6162 29.748C31.1084 29.4518 30.6725 29.0244 30.3086 28.4658C29.9531 27.9072 29.7754 27.1667 29.7754 26.2441C29.7754 25.4401 29.9827 24.7207 30.3975 24.0859C30.8122 23.4427 31.4004 22.9434 32.1621 22.5879C32.9238 22.2324 33.7998 22.0547 34.79 22.0547C35.2386 22.0547 35.7507 22.1182 36.3262 22.2451C36.9017 22.3636 37.3926 22.5286 37.7988 22.7402C38.2135 22.9518 38.4209 23.1846 38.4209 23.4385C38.4209 23.5485 38.3743 23.7008 38.2812 23.8955C38.1966 24.0817 38.0951 24.251 37.9766 24.4033C37.8581 24.5557 37.765 24.6318 37.6973 24.6318C37.6211 24.6318 37.4688 24.5684 37.2402 24.4414C36.8594 24.2383 36.4827 24.0775 36.1104 23.959C35.738 23.832 35.2852 23.7686 34.752 23.7686C33.8802 23.7686 33.1735 23.9928 32.6318 24.4414C32.0986 24.89 31.832 25.5163 31.832 26.3203C31.832 26.8027 31.9505 27.2005 32.1875 27.5137C32.4245 27.8268 32.7249 28.0765 33.0889 28.2627C33.4528 28.4489 33.9606 28.6647 34.6123 28.9102C34.6546 28.9186 34.752 28.9525 34.9043 29.0117C35.8014 29.3587 36.5335 29.6973 37.1006 30.0273C37.6761 30.349 38.1628 30.8145 38.5605 31.4238C38.9668 32.0332 39.1699 32.8118 39.1699 33.7598C39.1699 34.6484 38.9626 35.4229 38.5479 36.083C38.1416 36.7432 37.5576 37.251 36.7959 37.6064C36.0426 37.9535 35.1624 38.127 34.1553 38.127Z"
    fill="#6A621C" />
</svg>

<svg xmlns="http://www.w3.org/2000/svg" fill="none" viewBox="0 0 60 60">
  <circle cx="30" cy="30" r="30" fill="#fff" />
  <path fill="#6A621C"
    d="M22.48 38.127a7.7 7.7 0 0 1-1.6-.152q-.697-.153-.697-.559 0-.09.063-.406a3.7 3.7 0 0 1 .165-.584q.114-.267.28-.267.025 0 .279.051.33.075.571.127.255.038.571.038 1.677 0 2.412-.66.75-.66.75-2.12V22.65q0-.507.9-.507h.178q.915 0 .915.507v10.715q0 2.247-1.156 3.504-1.142 1.257-3.63 1.257m11.675 0q-1.245 0-2.323-.267-1.065-.279-1.714-.66-.635-.394-.635-.71 0-.18.14-.47.153-.293.343-.521t.304-.229q.102 0 .445.204.787.406 1.561.673.775.266 1.88.266.863 0 1.535-.33.673-.33 1.041-.927a2.6 2.6 0 0 0 .381-1.396q0-.838-.457-1.384a3.15 3.15 0 0 0-1.091-.876q-.636-.33-1.854-.812-1.32-.508-2.095-.94-.762-.445-1.307-1.282-.534-.839-.534-2.222 0-1.206.623-2.158.621-.965 1.764-1.498 1.143-.534 2.628-.533.673 0 1.536.19.864.178 1.473.495.622.318.622.699 0 .165-.14.456a2.5 2.5 0 0 1-.304.508q-.178.23-.28.229-.114 0-.457-.19a7 7 0 0 0-1.13-.483q-.558-.19-1.358-.19-1.308 0-2.12.672-.8.673-.8 1.88 0 .723.355 1.193.356.47.902.749.546.28 1.523.647.064.013.292.102 1.346.52 2.197 1.015.863.482 1.46 1.397.609.914.609 2.336 0 1.332-.622 2.323-.609.99-1.752 1.523-1.13.52-2.64.521" />
</svg>
